src/assets/svg/tokenlist.svg

<svg fill="none" height="225" viewBox="0 0 225 225" width="225" xmlns="http://www.w3.org/2000/svg" xmlns:xlink="http://www.w3.org/1999/xlink"><radialGradient id="a" cx="0" cy="0" gradientTransform="matrix(75.21801755 -50.64604186 46.53608285 69.11402684 134.41 68.3006)" gradientUnits="userSpaceOnUse" r="1"><stop offset=".661458" stop-color="#c4fcf8"/><stop offset="1" stop-color="#fff" stop-opacity="0"/></radialGradient><radialGradient id="b" cx="0" cy="0" gradientTransform="matrix(194.6691331 -87.32692311 80.24037721 178.87180854 42.7873 129.218)" gradientUnits="userSpaceOnUse" r="1"><stop offset="0" stop-color="#f09" stop-opacity=".9"/><stop offset=".770833" stop-color="#fff" stop-opacity="0"/></radialGradient><radialGradient id="c" cx="0" cy="0" gradientTransform="matrix(63.86332198 -86.27734969 79.27570429 58.68063688 176.854 148.655)" gradientUnits="userSpaceOnUse" r="1"><stop offset="0" stop-color="#ffec43"/><stop offset=".805707" stop-color="#fff6a8" stop-opacity="0"/></radialGradient><radialGradient id="d" cx="0" cy="0" gradientTransform="matrix(128.44160686 47.74046873 -43.86623948 118.01832774 57.5443 53.4752)" gradientUnits="userSpaceOnUse" r="1"><stop offset=".125" stop-color="#5886fe" stop-opacity=".46"/><stop offset=".673044" stop-color="#fff" stop-opacity="0"/></radialGradient><path d="m74.8125 190.529c-9.0564-.016-19.2827-6.781-22.841-15.109l-32.0298-74.964c-3.5583-8.3283.8987-15.066 9.9551-15.0492l81.5202.1511c9.056.0168 19.282 6.7816 22.841 15.1101l32.03 74.964c3.558 8.328-.899 15.065-9.956 15.049z" fill="#131313"/><path d="m92.1541 164.065c-9.0564-.016-19.2826-6.781-22.8409-15.109l-41.0129-95.9888c-3.5584-8.3281.8987-15.0657 9.9551-15.049l104.3826.1935c9.057.0168 19.283 6.7816 22.841 15.1097l41.013 95.9886c3.559 8.328-.898 15.066-9.955 15.049z" fill="#fff"/><path d="m92.1541 164.065c-9.0564-.016-19.2826-6.781-22.8409-15.109l-41.0129-95.9888c-3.5584-8.3281.8987-15.0657 9.9551-15.049l104.3826.1935c9.057.0168 19.283 6.7816 22.841 15.1097l41.013 95.9886c3.559 8.328-.898 15.066-9.955 15.049z" fill="url(#a)"/><path d="m92.1541 164.065c-9.0564-.016-19.2826-6.781-22.8409-15.109l-41.0129-95.9888c-3.5584-8.3281.8987-15.0657 9.9551-15.049l104.3826.1935c9.057.0168 19.283 6.7816 22.841 15.1097l41.013 95.9886c3.559 8.328-.898 15.066-9.955 15.049z" fill="url(#b)"/><path d="m92.1541 164.065c-9.0564-.016-19.2826-6.781-22.8409-15.109l-41.0129-95.9888c-3.5584-8.3281.8987-15.0657 9.9551-15.049l104.3826.1935c9.057.0168 19.283 6.7816 22.841 15.1097l41.013 95.9886c3.559 8.328-.898 15.066-9.955 15.049z" fill="url(#c)"/><path d="m92.1541 164.065c-9.0564-.016-19.2826-6.781-22.8409-15.109l-41.0129-95.9888c-3.5584-8.3281.8987-15.0657 9.9551-15.049l104.3826.1935c9.057.0168 19.283 6.7816 22.841 15.1097l41.013 95.9886c3.559 8.328-.898 15.066-9.955 15.049z" fill="url(#d)"/><g fill="#131313"><path clip-rule="evenodd" d="m92.958 165.95c-10.1885-.019-21.693-7.629-25.6961-16.998l-41.013-95.9888c-4.0031-9.3691 1.0111-16.9489 11.1996-16.93l104.3835.1934c10.188.0189 21.693 7.6293 25.696 16.9984l41.013 95.989c4.003 9.369-1.011 16.949-11.2 16.93zm-21.5966-16.991c3.1136 7.287 12.0615 13.207 19.9859 13.221l104.3827.194c7.925.014 11.825-5.881 8.711-13.168l-41.013-95.9886c-3.113-7.287-12.061-13.2063-19.986-13.221l-104.3828-.1934c-7.9243-.0147-11.8243 5.8807-8.7107 13.1678z" fill-rule="evenodd"/><path d="m68.565 53.3425c12.6131.0234 26.8555 9.445 31.811 21.0437 4.956 11.5988-1.2514 20.9825-13.8645 20.9592-12.6131-.0234-26.8556-9.445-31.8114-21.0438s1.2517-20.9825 13.8649-20.9591z"/><path d="m90.6891 104.981c12.6129.023 26.8559 9.444 31.8109 21.043 4.956 11.599-1.251 20.983-13.864 20.959-12.6135-.023-26.8559-9.445-31.8117-21.043-4.9558-11.599 1.2517-20.983 13.8648-20.959z"/><path d="m147.538 105.142c12.613.024 26.856 9.445 31.811 21.044 4.956 11.599-1.251 20.982-13.864 20.959-12.614-.023-26.856-9.445-31.812-21.044-4.956-11.598 1.252-20.982 13.865-20.959z"/></g></svg>

<svg width="225" height="225" viewBox="0 0 225 225" fill="none" xmlns="http://www.w3.org/2000/svg">
<path d="M74.8125 190.529C65.7561 190.513 55.5298 183.748 51.9715 175.42L19.9417 100.456C16.3834 92.1277 20.8404 85.39 29.8968 85.4068L111.417 85.5579C120.473 85.5747 130.699 92.3395 134.258 100.668L166.288 175.632C169.846 183.96 165.389 190.697 156.332 190.681L74.8125 190.529Z" fill="#131313"/>
<path d="M92.1541 164.065C83.0977 164.049 72.8715 157.284 69.3132 148.956L28.3003 52.9672C24.7419 44.6391 29.199 37.9015 38.2554 37.9182L142.638 38.1117C151.695 38.1285 161.921 44.8933 165.479 53.2214L206.492 149.21C210.051 157.538 205.594 164.276 196.537 164.259L92.1541 164.065Z" fill="white"/>
<path d="M92.1541 164.065C83.0977 164.049 72.8715 157.284 69.3132 148.956L28.3003 52.9672C24.7419 44.6391 29.199 37.9015 38.2554 37.9182L142.638 38.1117C151.695 38.1285 161.921 44.8933 165.479 53.2214L206.492 149.21C210.051 157.538 205.594 164.276 196.537 164.259L92.1541 164.065Z" fill="url(#paint0_radial)"/>
<path d="M92.1541 164.065C83.0977 164.049 72.8715 157.284 69.3132 148.956L28.3003 52.9672C24.7419 44.6391 29.199 37.9015 38.2554 37.9182L142.638 38.1117C151.695 38.1285 161.921 44.8933 165.479 53.2214L206.492 149.21C210.051 157.538 205.594 164.276 196.537 164.259L92.1541 164.065Z" fill="url(#paint1_radial)"/>
<path d="M92.1541 164.065C83.0977 164.049 72.8715 157.284 69.3132 148.956L28.3003 52.9672C24.7419 44.6391 29.199 37.9015 38.2554 37.9182L142.638 38.1117C151.695 38.1285 161.921 44.8933 165.479 53.2214L206.492 149.21C210.051 157.538 205.594 164.276 196.537 164.259L92.1541 164.065Z" fill="url(#paint2_radial)"/>
<path d="M92.1541 164.065C83.0977 164.049 72.8715 157.284 69.3132 148.956L28.3003 52.9672C24.7419 44.6391 29.199 37.9015 38.2554 37.9182L142.638 38.1117C151.695 38.1285 161.921 44.8933 165.479 53.2214L206.492 149.21C210.051 157.538 205.594 164.276 196.537 164.259L92.1541 164.065Z" fill="url(#paint3_radial)"/>
<path fill-rule="evenodd" clip-rule="evenodd" d="M92.958 165.95C82.7695 165.931 71.265 158.321 67.2619 148.952L26.2489 52.9632C22.2458 43.5941 27.26 36.0143 37.4485 36.0332L141.832 36.2266C152.02 36.2455 163.525 43.8559 167.528 53.225L208.541 149.214C212.544 158.583 207.53 166.163 197.341 166.144L92.958 165.95ZM71.3614 148.959C74.475 156.246 83.4229 162.166 91.3473 162.18L195.73 162.374C203.655 162.388 207.555 156.493 204.441 149.206L163.428 53.2174C160.315 45.9304 151.367 40.0111 143.442 39.9964L39.0592 39.803C31.1349 39.7883 27.2349 45.6837 30.3485 52.9708L71.3614 148.959Z" fill="#131313"/>
<path d="M68.565 53.3425C81.1781 53.3659 95.4205 62.7875 100.376 74.3862C105.332 85.985 99.1246 95.3687 86.5115 95.3454C73.8984 95.322 59.6559 85.9004 54.7001 74.3016C49.7443 62.7028 55.9518 53.3191 68.565 53.3425Z" fill="#131313"/>
<path d="M90.6891 104.981C103.302 105.004 117.545 114.425 122.5 126.024C127.456 137.623 121.249 147.007 108.636 146.983C96.0225 146.96 81.7801 137.538 76.8243 125.94C71.8685 114.341 78.076 104.957 90.6891 104.981Z" fill="#131313"/>
<path d="M147.538 105.142C160.151 105.166 174.394 114.587 179.349 126.186C184.305 137.785 178.098 147.168 165.485 147.145C152.871 147.122 138.629 137.7 133.673 126.101C128.717 114.503 134.925 105.119 147.538 105.142Z" fill="#131313"/>
<defs>
<radialGradient id="paint0_radial" cx="0" cy="0" r="1" gradientUnits="userSpaceOnUse" gradientTransform="translate(134.41 68.3006) rotate(-33.9533) scale(90.6795 83.3208)">
<stop offset="0.661458" stop-color="#C4FCF8"/>
<stop offset="1" stop-color="white" stop-opacity="0"/>
</radialGradient>
<radialGradient id="paint1_radial" cx="0" cy="0" r="1" gradientUnits="userSpaceOnUse" gradientTransform="translate(42.7873 129.218) rotate(-24.1606) scale(213.359 196.045)">
<stop stop-color="#FF0099" stop-opacity="0.9"/>
<stop offset="0.770833" stop-color="white" stop-opacity="0"/>
</radialGradient>
<radialGradient id="paint2_radial" cx="0" cy="0" r="1" gradientUnits="userSpaceOnUse" gradientTransform="translate(176.854 148.655) rotate(-53.4908) scale(107.342 98.6309)">
<stop stop-color="#FFEC43"/>
<stop offset="0.805707" stop-color="#FFF6A8" stop-opacity="0"/>
</radialGradient>
<radialGradient id="paint3_radial" cx="0" cy="0" r="1" gradientUnits="userSpaceOnUse" gradientTransform="translate(57.5443 53.4752) rotate(20.3896) scale(137.027 125.907)">
<stop offset="0.125" stop-color="#5886FE" stop-opacity="0.46"/>
<stop offset="0.673044" stop-color="white" stop-opacity="0"/>
</radialGradient>
</defs>
</svg>
